X:53
T: FERN IM SUED DAS SCHOENE SPANIEN
N: B0537
O: Europa, Mitteleuropa, Deutschland; Frankreich, Elsass, Bischweiler
R: Wander -, Heimat - Lied, Heimweh
M: 3/4
L: 1/16
K: D
F2G2 | F6E2D2E2 | D4C4
B2B2 | A6F2D2E2 | F8
F2G2 | F6E2D2E2 | D4C4
B2B2 | A6F2D2E2 | F8
G2F2 | F4E4F2E2 | E4D4
F2A2 | A6A2BAFD | E8
F2F2 | F6E2D2E2 | D4C4
E2F2 | G6G2F2E2 | A8
A2A2 | B6B2=c2B2 | A4G4
F2E2 | D2A,2F6E2 | D4z4

